!!!!SEGMENT: pl-kk--kk-i-7--091_gorczycki-grzegorz-gerwazy--laetare-jerusalem.krn
!!!cenid: 16xx:930
!!!COM: Gorczycki, Grzegorz Gerwazy
!!!COM-rismid: pe30009207
!!!CDT: ~1666-1734/04/30
!!!CNT: Polish
!!!OTL: Laetare Jerusalem
!!!PDT:
!!!AGN: Sacred
!!!SMS-siglum: PL-Kk
!!!SMS-shelfmark: Kk.I.7
!!!SMS-shelfwork: 091 W
!!!SMS-variant:
!!!SMS-altvar:
!!!NIFC-rismid: 300258168
!!!URL-scan: http://repozytorium.nifc.pl/skany/pl-kk-nut--i-7
!!!ONB-nifc: UWAGA: C (brak.), A (brak), T(0237, s.136), B(0324, s.135). Następny utwór: Haec dies
**kern	**text	**kern	**text	**kern	**kern
*part4	*part4	*part3	*part3	*part2	*part1
*staff4	*staff4	*staff3	*staff3	*staff2	*staff1
*Ibass	*	*Itenor	*	*Ialto	*Ivox
*I"[BASSVS.]	*	*I"[TENOR.]	*	*I"[ALTVS.]	*I"[CANTVS.]
*I'[B]	*	*I'[T]	*	*I'[A]	*I'[S]
*clefF4	*	*clefC4	*	*clefC4	*clefC3
*k[]	*	*k[]	*	*k[]	*k[]
*G:	*	*G:	*	*G:	*G:
*M3/2	*	*M3/2	*	*M3/2	*M3/2
=1-	=1-	=1-	=1-	=1-	=1-
!	!	!LO:TX:a:t=Pro D(omi)nica Laetare	!	!LO:TX:t=P:problem:brak głosu w źródle	!LO:TX:t=P:problem:brak głosu w źródle
!LO:TX:t=P:problem:przed kluczem inicjał L	!	!LO:TX:t=P:problem:przed kluczem inicjał L	!	!	!
1.r	.	1.r	.	1.ryy	1.ryy
=2-	=2-	=2-	=2-	=2-	=2-
1.r	.	1.r	.	1.ryy	1.ryy
=3-	=3-	=3-	=3-	=3-	=3-
1.r	.	1.r	.	1.ryy	1.ryy
=4-	=4-	=4-	=4-	=4-	=4-
!	!	!LO:TX:t=P:problem:kreska pseudotaktowa	!	!	!
1.r	.	1.r	.	1.ryy	1.ryy
=5-	=5-	=5-	=5-	=5-	=5-
1.r	.	2r	.	1.ryy	1.ryy
.	.	2r	.	.	.
!	!	!LO:TX:t=P:problem:kreska pseudotaktowa	!	!	!
.	.	2G/	Lae-	.	.
=6-	=6-	=6-	=6-	=6-	=6-
*	*	*2\right	*	*	*
!LO:TX:t=P:problem:kreska pseudotaktowa	!	!	!	!	!
1.r	.	2B\	-ta-	1.ryy	1.ryy
.	.	2G,</	-re	.	.
*	*	*	*ij	*	*
!	!	!LO:TX:t=P:problem:kreska pseudotaktowa	!	!	!
.	.	2B\	Lae-	.	.
=7-	=7-	=7-	=7-	=7-	=7-
2r	.	2d\	-ta-	1.ryy	1.ryy
2r	.	2d,<\	-re	.	.
*2\right	*	*	*Xij	*	*
!LO:TX:t=P:problem:kreska pseudotaktowa	!	!LO:TX:t=P:problem:kreska pseudotaktowa	!	!	!
2D\	Lae-	2d\	lae-	.	.
=8-	=8-	=8-	=8-	=8-	=8-
2F#X\	-ta-	4d\	-ta-	1.ryy	1.ryy
.	.	4c\	.	.	.
2D,<\	-re	4d\	.	.	.
.	.	4e\	.	.	.
*	*ij	*	*	*	*
!LO:TX:t=P:problem:kreska pseudotaktowa	!	!	!	!	!
2F#\	Lae-	4d\	.	.	.
!	!	!LO:TX:t=P:problem:kreska pseudotaktowa	!	!	!
.	.	4c\	.	.	.
=9-	=9-	=9-	=9-	=9-	=9-
2G\	-ta-	4B\	.	1.ryy	1.ryy
.	.	4A\	.	.	.
2G,<\	-re	4B\	.	.	.
*	*Xij	*	*	*	*
.	.	4c\	.	.	.
!LO:TX:t=P:problem:kreska pseudotaktowa	!	!	!	!	!
2G\	lae-	4B\	.	.	.
!	!	!LO:TX:t=P:problem:kreska pseudotaktowa	!	!	!
.	.	4A\	.	.	.
=10-	=10-	=10-	=10-	=10-	=10-
(4G\	-ta-	2G/	.	1.ryy	1.ryy
4Fny\	.	.	.	.	.
4G\	.	2G,</	-re	.	.
4A\)	.	.	.	.	.
!	!	!LO:TX:t=P:problem:kreska pseudotaktowa	!	!	!
4G\	.	2G/	lae-	.	.
!LO:TX:t=P:problem:kreska pseudotaktowa	!	!	!	!	!
4F\	.	.	.	.	.
=11-	=11-	=11-	=11-	=11-	=11-
(4E\	.	2c\	-ta-	1.ryy	1.ryy
4D\	.	.	.	.	.
4E\	.	2c,<\	-re	.	.
4F\	.	.	.	.	.
4E\)	.	2c\	lae-	.	.
!LO:TX:t=P:problem:kreska pseudotaktowa	!	!	!	!	!
4D\	.	.	.	.	.
=12-	=12-	=12-	=12-	=12-	=12-
2C/	.	4c\	-ta-	1.ryy	1.ryy
.	.	4B\	.	.	.
2C,</	-re	4c\	.	.	.
.	.	4d\	.	.	.
*	*ij	*	*	*	*
!LO:TX:t=P:problem:kreska pseudotaktowa	!	!	!	!	!
2c\	lae-	4c\	.	.	.
!	!	!LO:TX:t=P:problem:kreska pseudotaktowa	!	!	!
.	.	4d\	.	.	.
=13-	=13-	=13-	=13-	=13-	=13-
2c\	-ta-	2e\	.	1.ryy	1.ryy
2C,</	-re	2e,<\	-re	.	.
*	*Xij	*	*ij	*	*
!LO:TX:t=P:problem:kreska pseudotaktowa	!	!LO:TX:t=P:problem:kreska pseudotaktowa	!	!	!
2GG/	lae-	2d\	lae-	.	.
=14-	=14-	=14-	=14-	=14-	=14-
2C/	-ta-	2c\	-ta-	1.ryy	1.ryy
2C,</	-re	2c,<\	-re	.	.
*	*	*	*Xij	*	*
!LO:TX:t=P:problem:kreska pseudotaktowa	!	!LO:TX:t=P:problem:kreska pseudotaktowa	!	!	!
2c\	lae-	2c\	lae-	.	.
=15-	=15-	=15-	=15-	=15-	=15-
4c\	-ta-	4c\	-ta-	1.ryy	1.ryy
4B-X\	.	4d\	.	.	.
4c\	.	4c\	.	.	.
4d\	.	4d\	.	.	.
4c\	.	4c\	.	.	.
!	!	!LO:SIC:v:t= custos c	!	!	!
!LO:TX:t=P:problem:kreska pseudotaktowa	!	!LO:TX:t=P:problem:kreska pseudotaktowa	!	!	!
4B-X\	.	4d\	.	.	.
=16-	=16-	=16-	=16-	=16-	=16-
!	!	!LO:LB:g=original	!	!	!
(4A\	.	2c\	.	1.ryy	1.ryy
4G\	.	.	.	.	.
4A\	.	2A/	-re	.	.
4B-X\	.	.	.	.	.
*	*	*	*ij	*	*
!	!	!LO:TX:t=P:problem:kreska pseudotaktowa	!	!	!
4A\)	.	2A/	lae-	.	.
!LO:TX:t=P:problem:kreska pseudotaktowa	!	!	!	!	!
4G\	.	.	.	.	.
=17-	=17-	=17-	=17-	=17-	=17-
2F\	.	2A\	-ta-	1.ryy	1.ryy
2F,<\	-re	2F,</	-re	.	.
*	*	*	*Xij	*	*
!LO:TX:a:t=Pro D(omi)nica Laetare	!	!	!	!	!
!LO:TX:t=P:problem:kreska pseudotaktowa	!	!LO:TX:t=P:problem:kreska pseudotaktowa	!	!	!
2F\	lae-	2c\	lae-	.	.
=18-	=18-	=18-	=18-	=18-	=18-
!LO:LB:g=original	!	!	!	!	!
2F\	-ta-	2c\	-ta-	1.ryy	1.ryy
2F,<\	-re	2A,<\	-re	.	.
*	*ij	*	*ij	*	*
!LO:TX:t=P:problem:kreska pseudotaktowa	!	!	!	!	!
2C/	lae-	2c\	lae-	.	.
=19-	=19-	=19-	=19-	=19-	=19-
2F\	-ta-	2c\	-ta-	1.ryy	1.ryy
2F,<\	-re	2c,<\	-re	.	.
*	*Xij	*	*Xij	*	*
!LO:TX:t=P:problem:kreska pseudotaktowa	!	!LO:TX:t=P:problem:kreska pseudotaktowa	!	!	!
2C/	Je-	2c\	Je-	.	.
=20-	=20-	=20-	=20-	=20-	=20-
1G	-ru-	1c	-ru-	1.ryy	1.ryy
!LO:TX:t=P:problem:kreska pseudotaktowa	!	!	!	!	!
2G\	-sa-	2B\	-sa-	.	.
=21-	=21-	=21-	=21-	=21-	=21-
2C/	-lem	2c,<\	-lem	1.ryy	1.ryy
2r	.	2G/	et	.	.
!LO:TX:t=P:problem:kreska pseudotaktowa	!	!LO:TX:t=P:problem:kreska pseudotaktowa	!	!	!
2r	.	2G/	con-	.	.
=22-	=22-	=22-	=22-	=22-	=22-
2r	.	1c	-ven-	1.ryy	1.ryy
2C/	et	.	.	.	.
!LO:TX:t=P:problem:kreska pseudotaktowa	!	!	!	!	!
2C/	con-	2c\	-tum	.	.
=23-	=23-	=23-	=23-	=23-	=23-
1F	-ven-	2.A\	fa-	1.ryy	1.ryy
.	.	4A\	-ci-	.	.
!LO:TX:t=P:problem:kreska pseudotaktowa	!	!	!	!	!
2F\	-tum	2A\	-te	.	.
=24-	=24-	=24-	=24-	=24-	=24-
2.D\	fa-	1d	om-	1.ryy	1.ryy
4D\	-ci-	.	.	.	.
!LO:TX:t=P:problem:kreska pseudotaktowa	!	!LO:TX:t=P:problem:kreska pseudotaktowa	!	!	!
2D\	-te	2d\	-nes	.	.
=25-	=25-	=25-	=25-	=25-	=25-
1G	om-	2r	.	1.ryy	1.ryy
.	.	2B\	qui	.	.
!LO:TX:t=P:problem:kreska pseudotaktowa	!	!	!	!	!
2G\	-nes	2B\	di-	.	.
=26-	=26-	=26-	=26-	=26-	=26-
1E	qui	2.e\	-li-	1.ryy	1.ryy
.	.	4e\	-gi-	.	.
!LO:TX:t=P:problem:kreska pseudotaktowa	!	!	!	!	!
2E\	di-	4e,<\	-tis	.	.
*	*	*	*ij	*	*
!	!	!LO:TX:t=P:problem:kreska pseudotaktowa	!	!	!
.	.	4e\	di-	.	.
=27-	=27-	=27-	=27-	=27-	=27-
2.A\	-li-	2.c\	-li-	1.ryy	1.ryy
4A\	-gi-	4c\	-gi-	.	.
!LO:TX:t=P:problem:kreska pseudotaktowa	!	!	!	!	!
2F\	-tis	2c\	-tis	.	.
*	*	*	*Xij	*	*
=28-	=28-	=28-	=28-	=28-	=28-
1G	e-	1c	e-	1.ryy	1.ryy
!LO:TX:t=P:problem:kreska pseudotaktowa	!	!LO:TX:t=P:problem:kreska pseudotaktowa	!	!	!
2GG/	.	2B\	.	.	.
=29-	=29-	=29-	=29-	=29-	=29-
!LO:TX:t=P:problem:kreska pseudotaktowa	!	!	!	!	!
1.C	-am	1c,<	-am	1.ryy	1.ryy
!	!	!LO:SIC:v:t= custos B	!	!	!
!	!	!LO:TX:t=P:problem:kreska pseudotaktowa	!	!	!
.	.	2c\	gau-	.	.
=30-	=30-	=30-	=30-	=30-	=30-
!LO:TX:a:t=1.	!	!	!	!	!
!LO:TX:t=P:problem:kreska pseudotaktowa	!	!LO:LB:g=original	!	!	!
1.r	.	4B\	-de-	1.ryy	1.ryy
.	.	4A\	.	.	.
.	.	4B\	.	.	.
.	.	4G/	.	.	.
.	.	4A\	.	.	.
!	!	!LO:TX:t=P:problem:kreska pseudotaktowa	!	!	!
.	.	4B\	.	.	.
=31-	=31-	=31-	=31-	=31-	=31-
2r	.	2c\	.	1.ryy	1.ryy
2r	.	2c\	-te	.	.
*	*	*	*ij	*	*
!LO:TX:t=P:problem:kreska pseudotaktowa	!	!LO:TX:t=P:problem:kreska pseudotaktowa	!	!	!
2G\	gau-	2B\	gau-	.	.
=32-	=32-	=32-	=32-	=32-	=32-
4F#X\	-de-	2.d\	-de-	1.ryy	1.ryy
(4E\	.	.	.	.	.
4F#\	.	.	.	.	.
4D\)	.	4A,<\	-te	.	.
*	*	*	*Xij	*	*
4E\	.	4d\	gau-	.	.
!LO:TX:t=P:problem:kreska pseudotaktowa	!	!	!	!	!
4F#X\	.	4c\	.	.	.
=33-	=33-	=33-	=33-	=33-	=33-
2.G\	.	2.B\	-de-	1.ryy	1.ryy
4G,<\	-te	4G/	-te	.	.
4F#X\	cum	4d\	cum	.	.
!LO:TX:t=P:problem:kreska pseudotaktowa	!	!LO:TX:t=P:problem:kreska pseudotaktowa	!	!	!
4F#y\	lae-	4d\	lae-	.	.
=34-	=34-	=34-	=34-	=34-	=34-
2.E\	-ti-	2.d\	-ti-	1.ryy	1.ryy
4E\	-ti-	4c#X\	-ti-	.	.
!LO:TX:t=P:problem:kreska pseudotaktowa	!	!LO:TX:t=P:problem:kreska pseudotaktowa	!	!	!
2D/	-a	2d\	-a	.	.
=35-	=35-	=35-	=35-	=35-	=35-
!LO:TX:a:i:t=adagio	!	!	!	!	!
!LO:LB:g=original	!	!	!	!	!
2BB/	qui	2d#X\	qui	1.ryy	1.ryy
!	!	!LO:TX:a:i:t=adag[io]	!	!	!
2BB/	in	2B\	in	.	.
!LO:TX:t=P:problem:kreska pseudotaktowa	!	!LO:TX:t=P:problem:kreska pseudotaktowa	!	!	!
2BB/	tri-	2d#y\	tri-	.	.
=36-	=36-	=36-	=36-	=36-	=36-
2.C/	-sti-	2.e\	-sti-	1.ryy	1.ryy
4C/	-ti-	4e\	-ti-	.	.
!LO:TX:t=P:problem:kreska pseudotaktowa	!	!	!	!	!
2AA/	-a	2A/	-a	.	.
=37-	=37-	=37-	=37-	=37-	=37-
2AA/	fu-	2cny\	fu-	1.ryy	1.ryy
!	!	!LO:TX:t=P:problem:kreska pseudotaktowa	!	!	!
1BB	-i-	1B	-i-	.	.
=38-	=38-	=38-	=38-	=38-	=38-
!LO:TX:t=P:problem:kreska pseudotaktowa	!	!LO:TX:t=P:problem:kreska pseudotaktowa	!	!	!
1.E	-stis	1.B	-stis.	1.ryy	1.ryy
=39-	=39-	=39-	=39-	=39-	=39-
1.r	.	2G/	Ut	1.ryy	1.ryy
.	.	2B\	ex-	.	.
!	!	!LO:TX:t=P:problem:kreska pseudotaktowa	!	!	!
.	.	2c\	-ul-	.	.
=40-	=40-	=40-	=40-	=40-	=40-
1.r	.	2dny\	-te-	1.ryy	1.ryy
.	.	2A\	-tis	.	.
!	!	!LO:TX:t=P:problem:kreska pseudotaktowa	!	!	!
.	.	2B\	et	.	.
=41-	=41-	=41-	=41-	=41-	=41-
1.r	.	1c	sa-	1.ryy	1.ryy
.	.	2c\	-ti-	.	.
=42-	=42-	=42-	=42-	=42-	=42-
1.r	.	2.B\	-e-	1.ryy	1.ryy
.	.	4B\	-mi-	.	.
!	!	!LO:TX:t=P:problem:kreska pseudotaktowa	!	!	!
.	.	2B\	-ni	.	.
=43-	=43-	=43-	=43-	=43-	=43-
!LO:TX:a:i:t=alló.	!	!	!	!	!
!	!	!LO:LB:g=original	!	!	!
2D\	ut	1A	ab	1.ryy	1.ryy
2F#X\	ex-	.	.	.	.
!LO:TX:t=P:problem:kreska pseudotaktowa	!	!	!	!	!
2G\	-ul-	2d\	u-	.	.
=44-	=44-	=44-	=44-	=44-	=44-
2A\	-te-	2.c\	-be-	1.ryy	1.ryy
2E\	-tis	.	.	.	.
.	.	4B\	-ri-	.	.
!LO:TX:t=P:problem:kreska pseudotaktowa	!	!LO:TX:t=P:problem:kreska pseudotaktowa	!	!	!
2F#X\	et	2A/	-b(us)	.	.
=45-	=45-	=45-	=45-	=45-	=45-
1G	sa-	2.d\	con-	1.ryy	1.ryy
.	.	4d\	-ſo-	.	.
!LO:TX:t=P:problem:kreska pseudotaktowa	!	!	!	!	!
2G\	-ti-	4d\	-la-	.	.
.	.	4d\	-ti-	.	.
=46-	=46-	=46-	=46-	=46-	=46-
2.F#X\	-e-	1e	-o-	1.ryy	1.ryy
4F#y\	-mi-	.	.	.	.
!LO:TX:t=P:problem:kreska pseudotaktowa	!	!LO:TX:t=P:problem:kreska pseudotaktowa	!	!	!
2F#y\	-ni	2A/	-nis	.	.
=47-	=47-	=47-	=47-	=47-	=47-
1E	ab	(1d	ve-	1.ryy	1.ryy
!LO:TX:t=P:problem:kreska pseudotaktowa	!	!	!	!	!
2E\	u-	2c#X\)	.	.	.
=48-	=48-	=48-	=48-	=48-	=48-
2.D/	-be-	2d,<\	-strae	1.ryy	1.ryy
.	.	2d\	con-	.	.
4D/	-ri-	.	.	.	.
!LO:TX:t=P:problem:kreska pseudotaktowa	!	!	!	!	!
2D/	-b(us)	2d\	-ſo-	.	.
=49-	=49-	=49-	=49-	=49-	=49-
2.A\	con-	1c#X	-la-	1.ryy	1.ryy
4A\	-ſo-	.	.	.	.
4A\	-la-	2c#y\	-ti-	.	.
!LO:TX:t=P:problem:kreska pseudotaktowa	!	!	!	!	!
4A\	-ti-	.	.	.	.
=50-	=50-	=50-	=50-	=50-	=50-
2Bny\	-o-	1B	-o-	1.ryy	1.ryy
2E,<\	-nis	.	.	.	.
!LO:TX:t=P:problem:kreska pseudotaktowa	!	!LO:TX:t=P:problem:kreska pseudotaktowa	!	!	!
2A\	Ve-	2A/	-nis	.	.
=51-	=51-	=51-	=51-	=51-	=51-
2D,</	-ſtrae	2r	.	1.ryy	1.ryy
*	*	*	*ij	*	*
2D/	con-	2A\	con-	.	.
!LO:SIC:v:t= custos BB	!	!	!	!	!
!LO:TX:t=P:problem:kreska pseudotaktowa	!	!LO:TX:t=P:problem:kreska pseudotaktowa	!	!	!
2D/	-ſo-	2A\	-ſo-	.	.
=52-	=52-	=52-	=52-	=52-	=52-
!LO:LB:g=original	!	!	!	!	!
1BB	-la-	1B	-la-	1.ryy	1.ryy
!LO:TX:t=P:problem:kreska pseudotaktowa	!	!	!	!	!
2BB/	-ti-	2B\	-ti-	.	.
=53-	=53-	=53-	=53-	=53-	=53-
1C	-o-	1G	-o-	1.ryy	1.ryy
1GG/	-nis	1B\	-nis	.	.
*	*	*	*Xij	*	*
=54-	=54-	=54-	=54-	=54-	=54-
.	.	.	.	1.ryy	1.ryy
!LO:TX:t=P:problem:kreska pseudotaktowa	!	!	!	!	!
1D	Ve-	1A	Ve-	.	.
=55-	=55-	=55-	=55-	=55-	=55-
!LO:N:vis=0.	!	!LO:N:vis=0	!	!	!
1.GG	-ſtrae.	1.B;	-strae.	1.ryy	1.ryy
!LO:PB:g=original	!	!LO:LB:g=original	!	!	!
=||	=||	=||	=||	=||	=||
*-	*-	*-	*-	*-	*-
!!!system-decoration: [(s1,s2,s3,s4)]
!!!ENC: Marta Chmielewska
!!!END: 2021-03-20
!!!RDF**kern: < = below
!!!RDF**kern: > = above
!!!ENC: Andrzej Borzym
!!!END: 2021-03-04
